X: 1355
T: An Port Ard
R: jig
M: 6/8
K: Adorian
|:b|c'ba bag|efg a2b|c'ba b2a|ged e2b|
c'ba bag|efg agd|edc Bcd|ecB A2:|
|:B|c2c d^cd|eda ged|cAB c2d|ed^c ded|
cAB c2d|eaa efg|edc Bcd|ecB A2:|

